X:27
T:Auld Toun o' Ayr, The
R:Strathspey
B:The Athole Collection
M:C|
L:1/8
K:D
F|D<DF<A d3c|B/A/B/c/ d>B A<F F>d|D<DF<A d3f|(3efg (3gfe d<B B>d|
D<DF<A d3c|B/A/B/c/ d>B A<F F>A|B/A/B/c/ d>B A<F F>d|A<F F>D ~E2E:|
F|D>dF>d A<F F>A|B/A/B/c/ d>B A<F F>d|D>dF>d A<F F>A|d>B A<F ~E3F|
D>dF>d A<F F>A|B>AB>c d3f|(3efg (3gfe d<B B>d|A<F F>D ~E2E||

